build/img/rating.svg

<svg width="93" height="16" viewBox="0 0 93 16" fill="none" xmlns="http://www.w3.org/2000/svg">
<path fill-rule="evenodd" clip-rule="evenodd" d="M84.7941 12.18L86.9931 13.4739C87.7532 13.9212 88.6781 13.2371 88.4728 12.3794L87.8987 9.98L89.7839 8.38781C90.4651 7.81249 90.1097 6.70073 89.2211 6.62723L86.7157 6.42L85.7112 4.10951C85.3626 3.30776 84.2256 3.30777 83.877 4.10951L82.8726 6.42L80.3671 6.62723C79.4785 6.70073 79.1231 7.81249 79.8043 8.38781L81.6895 9.98L81.1154 12.3794C80.9102 13.2371 81.835 13.9212 82.5951 13.4739L84.7941 12.18Z" fill="#9B8869"/>
<mask id="mask0" mask-type="alpha" maskUnits="userSpaceOnUse" x="79" y="3" width="12" height="11">
<path fill-rule="evenodd" clip-rule="evenodd" d="M84.7941 12.18L86.9931 13.4739C87.7532 13.9212 88.6781 13.2371 88.4728 12.3794L87.8987 9.98L89.7839 8.38781C90.4651 7.81249 90.1097 6.70073 89.2211 6.62723L86.7157 6.42L85.7112 4.10951C85.3626 3.30776 84.2256 3.30777 83.877 4.10951L82.8726 6.42L80.3671 6.62723C79.4785 6.70073 79.1231 7.81249 79.8043 8.38781L81.6895 9.98L81.1154 12.3794C80.9102 13.2371 81.835 13.9212 82.5951 13.4739L84.7941 12.18Z" fill="white"/>
</mask>
<g mask="url(#mask0)">
<rect x="76.5882" width="16.4118" height="16" fill="#9B8869"/>
</g>
<path fill-rule="evenodd" clip-rule="evenodd" d="M65.647 12.18L67.8461 13.4739C68.6062 13.9212 69.531 13.2371 69.3257 12.3794L68.7516 9.98L70.6368 8.38781C71.318 7.81249 70.9626 6.70073 70.074 6.62723L67.5686 6.42L66.5641 4.10951C66.2156 3.30777 65.0785 3.30777 64.73 4.10951L63.7255 6.42L61.2201 6.62723C60.3315 6.70073 59.9761 7.81249 60.6573 8.38781L62.5425 9.98L61.9683 12.3794C61.7631 13.2371 62.6879 13.9212 63.448 13.4739L65.647 12.18Z" fill="#9B8869"/>
<mask id="mask1" mask-type="alpha" maskUnits="userSpaceOnUse" x="60" y="3" width="11" height="11">
<path fill-rule="evenodd" clip-rule="evenodd" d="M65.647 12.18L67.8461 13.4739C68.6062 13.9212 69.531 13.2371 69.3257 12.3794L68.7516 9.98L70.6368 8.38781C71.318 7.81249 70.9626 6.70073 70.074 6.62723L67.5686 6.42L66.5641 4.10951C66.2156 3.30777 65.0785 3.30777 64.73 4.10951L63.7255 6.42L61.2201 6.62723C60.3315 6.70073 59.9761 7.81249 60.6573 8.38781L62.5425 9.98L61.9683 12.3794C61.7631 13.2371 62.6879 13.9212 63.448 13.4739L65.647 12.18Z" fill="white"/>
</mask>
<g mask="url(#mask1)">
<rect x="57.4412" width="16.4118" height="16" fill="#9B8869"/>
</g>
<path fill-rule="evenodd" clip-rule="evenodd" d="M46.5 12.18L48.699 13.4739C49.4591 13.9212 50.384 13.2371 50.1787 12.3794L49.6046 9.98L51.4898 8.38781C52.171 7.81249 51.8156 6.70073 50.927 6.62723L48.4216 6.42L47.4171 4.10951C47.0685 3.30776 45.9315 3.30777 45.5829 4.10951L44.5785 6.42L42.073 6.62723C41.1844 6.70073 40.829 7.81249 41.5102 8.38781L43.3955 9.98L42.8213 12.3794C42.6161 13.2371 43.5409 13.9212 44.301 13.4739L46.5 12.18Z" fill="#9B8869"/>
<mask id="mask2" mask-type="alpha" maskUnits="userSpaceOnUse" x="41" y="3" width="11" height="11">
<path fill-rule="evenodd" clip-rule="evenodd" d="M46.5 12.18L48.699 13.4739C49.4591 13.9212 50.384 13.2371 50.1787 12.3794L49.6046 9.98L51.4898 8.38781C52.171 7.81249 51.8156 6.70073 50.927 6.62723L48.4216 6.42L47.4171 4.10951C47.0685 3.30776 45.9315 3.30777 45.5829 4.10951L44.5785 6.42L42.073 6.62723C41.1844 6.70073 40.829 7.81249 41.5102 8.38781L43.3955 9.98L42.8213 12.3794C42.6161 13.2371 43.5409 13.9212 44.301 13.4739L46.5 12.18Z" fill="white"/>
</mask>
<g mask="url(#mask2)">
<rect x="38.2941" width="16.4118" height="16" fill="#9B8869"/>
</g>
<path fill-rule="evenodd" clip-rule="evenodd" d="M27.3529 12.18L29.552 13.4739C30.3121 13.9212 31.2369 13.2371 31.0316 12.3794L30.4575 9.98L32.3427 8.38781C33.0239 7.81249 32.6685 6.70073 31.7799 6.62723L29.2745 6.42L28.27 4.10951C27.9215 3.30776 26.7844 3.30777 26.4359 4.10951L25.4314 6.42L22.926 6.62723C22.0374 6.70073 21.682 7.81249 22.3632 8.38781L24.2484 9.98L23.6742 12.3794C23.469 13.2371 24.3938 13.9212 25.1539 13.4739L27.3529 12.18Z" fill="#9B8869"/>
<mask id="mask3" mask-type="alpha" maskUnits="userSpaceOnUse" x="22" y="3" width="11" height="11">
<path fill-rule="evenodd" clip-rule="evenodd" d="M27.3529 12.18L29.552 13.4739C30.3121 13.9212 31.2369 13.2371 31.0316 12.3794L30.4575 9.98L32.3427 8.38781C33.0239 7.81249 32.6685 6.70073 31.7799 6.62723L29.2745 6.42L28.27 4.10951C27.9215 3.30776 26.7844 3.30777 26.4359 4.10951L25.4314 6.42L22.926 6.62723C22.0374 6.70073 21.682 7.81249 22.3632 8.38781L24.2484 9.98L23.6742 12.3794C23.469 13.2371 24.3938 13.9212 25.1539 13.4739L27.3529 12.18Z" fill="white"/>
</mask>
<g mask="url(#mask3)">
<rect x="19.1471" width="16.4118" height="16" fill="#9B8869"/>
</g>
<path fill-rule="evenodd" clip-rule="evenodd" d="M8.20588 12.18L10.4049 13.4739C11.165 13.9212 12.0898 13.2371 11.8846 12.3794L11.3104 9.98L13.1957 8.38781C13.8769 7.81249 13.5215 6.70073 12.6329 6.62723L10.1274 6.42L9.12297 4.10951C8.77442 3.30776 7.63735 3.30777 7.2888 4.10951L6.28434 6.42L3.77891 6.62723C2.89029 6.70073 2.5349 7.81249 3.2161 8.38781L5.10132 9.98L4.52718 12.3794C4.32194 13.2371 5.24675 13.9212 6.00686 13.4739L8.20588 12.18Z" fill="#9B8869"/>
<mask id="mask4" mask-type="alpha" maskUnits="userSpaceOnUse" x="2" y="3" width="12" height="11">
<path fill-rule="evenodd" clip-rule="evenodd" d="M8.20588 12.18L10.4049 13.4739C11.165 13.9212 12.0898 13.2371 11.8846 12.3794L11.3104 9.98L13.1957 8.38781C13.8769 7.81249 13.5215 6.70073 12.6329 6.62723L10.1274 6.42L9.12297 4.10951C8.77442 3.30776 7.63735 3.30777 7.2888 4.10951L6.28434 6.42L3.77891 6.62723C2.89029 6.70073 2.5349 7.81249 3.2161 8.38781L5.10132 9.98L4.52718 12.3794C4.32194 13.2371 5.24675 13.9212 6.00686 13.4739L8.20588 12.18Z" fill="white"/>
</mask>
<g mask="url(#mask4)">
<rect width="16.4118" height="16" fill="#9B8869"/>
</g>
</svg>

<svg width="93" height="16" fill="none" xmlns="http://www.w3.org/2000/svg"><path fill-rule="evenodd" clip-rule="evenodd" d="M84.794 12.18l2.2 1.294c.76.447 1.684-.237 1.479-1.095l-.574-2.399 1.885-1.592c.681-.576.326-1.687-.563-1.76l-2.505-.208-1.005-2.31c-.348-.802-1.485-.802-1.834 0l-1.004 2.31-2.506.207c-.889.074-1.244 1.185-.563 1.76L81.69 9.98l-.574 2.4c-.205.857.72 1.541 1.48 1.094l2.2-1.294z" fill="#9B8869"/><mask id="a" maskUnits="userSpaceOnUse" x="79" y="3" width="12" height="11"><path fill-rule="evenodd" clip-rule="evenodd" d="M84.794 12.18l2.2 1.294c.76.447 1.684-.237 1.479-1.095l-.574-2.399 1.885-1.592c.681-.576.326-1.687-.563-1.76l-2.505-.208-1.005-2.31c-.348-.802-1.485-.802-1.834 0l-1.004 2.31-2.506.207c-.889.074-1.244 1.185-.563 1.76L81.69 9.98l-.574 2.4c-.205.857.72 1.541 1.48 1.094l2.2-1.294z" fill="#fff"/></mask><g mask="url(#a)"><path fill="#9B8869" d="M76.588 0H93v16H76.588z"/></g><path fill-rule="evenodd" clip-rule="evenodd" d="M65.647 12.18l2.2 1.294c.76.447 1.684-.237 1.479-1.095l-.574-2.399 1.885-1.592c.681-.576.326-1.687-.563-1.76l-2.505-.208-1.005-2.31c-.348-.802-1.485-.802-1.834 0l-1.005 2.31-2.505.207c-.889.074-1.244 1.185-.563 1.76l1.886 1.593-.575 2.4c-.205.857.72 1.541 1.48 1.094l2.199-1.294z" fill="#9B8869"/><mask id="b" maskUnits="userSpaceOnUse" x="60" y="3" width="11" height="11"><path fill-rule="evenodd" clip-rule="evenodd" d="M65.647 12.18l2.2 1.294c.76.447 1.684-.237 1.479-1.095l-.574-2.399 1.885-1.592c.681-.576.326-1.687-.563-1.76l-2.505-.208-1.005-2.31c-.348-.802-1.485-.802-1.834 0l-1.005 2.31-2.505.207c-.889.074-1.244 1.185-.563 1.76l1.886 1.593-.575 2.4c-.205.857.72 1.541 1.48 1.094l2.199-1.294z" fill="#fff"/></mask><g mask="url(#b)"><path fill="#9B8869" d="M57.441 0h16.412v16H57.441z"/></g><path fill-rule="evenodd" clip-rule="evenodd" d="M46.5 12.18l2.199 1.294c.76.447 1.685-.237 1.48-1.095l-.574-2.399 1.885-1.592c.681-.576.326-1.687-.563-1.76l-2.505-.208-1.005-2.31c-.349-.802-1.486-.802-1.834 0l-1.005 2.31-2.505.207c-.889.074-1.244 1.185-.563 1.76l1.886 1.593-.575 2.4c-.205.857.72 1.541 1.48 1.094L46.5 12.18z" fill="#9B8869"/><mask id="c" maskUnits="userSpaceOnUse" x="41" y="3" width="11" height="11"><path fill-rule="evenodd" clip-rule="evenodd" d="M46.5 12.18l2.199 1.294c.76.447 1.685-.237 1.48-1.095l-.574-2.399 1.885-1.592c.681-.576.326-1.687-.563-1.76l-2.505-.208-1.005-2.31c-.349-.802-1.486-.802-1.834 0l-1.005 2.31-2.505.207c-.889.074-1.244 1.185-.563 1.76l1.886 1.593-.575 2.4c-.205.857.72 1.541 1.48 1.094L46.5 12.18z" fill="#fff"/></mask><g mask="url(#c)"><path fill="#9B8869" d="M38.294 0h16.412v16H38.294z"/></g><path fill-rule="evenodd" clip-rule="evenodd" d="M27.353 12.18l2.199 1.294c.76.447 1.685-.237 1.48-1.095l-.575-2.399 1.886-1.592c.68-.576.325-1.687-.563-1.76l-2.506-.208-1.004-2.31c-.348-.802-1.486-.802-1.834 0L25.43 6.42l-2.505.207c-.889.074-1.244 1.185-.563 1.76l1.885 1.593-.574 2.4c-.205.857.72 1.541 1.48 1.094l2.199-1.294z" fill="#9B8869"/><mask id="d" maskUnits="userSpaceOnUse" x="22" y="3" width="11" height="11"><path fill-rule="evenodd" clip-rule="evenodd" d="M27.353 12.18l2.199 1.294c.76.447 1.685-.237 1.48-1.095l-.575-2.399 1.886-1.592c.68-.576.325-1.687-.563-1.76l-2.506-.208-1.004-2.31c-.348-.802-1.486-.802-1.834 0L25.43 6.42l-2.505.207c-.889.074-1.244 1.185-.563 1.76l1.885 1.593-.574 2.4c-.205.857.72 1.541 1.48 1.094l2.199-1.294z" fill="#fff"/></mask><g mask="url(#d)"><path fill="#9B8869" d="M19.147 0h16.412v16H19.147z"/></g><path fill-rule="evenodd" clip-rule="evenodd" d="M8.206 12.18l2.199 1.294c.76.447 1.685-.237 1.48-1.095L11.31 9.98l1.886-1.592c.68-.576.325-1.687-.563-1.76l-2.506-.208-1.004-2.31c-.349-.802-1.486-.802-1.834 0L6.284 6.42l-2.505.207c-.889.074-1.244 1.185-.563 1.76L5.101 9.98l-.574 2.4c-.205.857.72 1.541 1.48 1.094l2.199-1.294z" fill="#9B8869"/><mask id="e" maskUnits="userSpaceOnUse" x="2" y="3" width="12" height="11"><path fill-rule="evenodd" clip-rule="evenodd" d="M8.206 12.18l2.199 1.294c.76.447 1.685-.237 1.48-1.095L11.31 9.98l1.886-1.592c.68-.576.325-1.687-.563-1.76l-2.506-.208-1.004-2.31c-.349-.802-1.486-.802-1.834 0L6.284 6.42l-2.505.207c-.889.074-1.244 1.185-.563 1.76L5.101 9.98l-.574 2.4c-.205.857.72 1.541 1.48 1.094l2.199-1.294z" fill="#fff"/></mask><g mask="url(#e)"><path fill="#9B8869" d="M0 0h16.412v16H0z"/></g></svg>
